icons/24x24_workorder_add_outline.svg

<svg xmlns="http://www.w3.org/2000/svg" width="24" height="24" viewBox="0 0 24 24">
  <path fill-rule="evenodd" d="M21,13 L19,13 L19,12.2 C19,10.4451055 17.7689689,8.82061689 15.8573079,7.86951514 L15.3071745,10.2272296 C15.1816791,10.7650673 14.6439414,11.0993367 14.1061037,10.9738412 C13.5682661,10.8483458 13.2339967,10.310608 13.3594921,9.77277038 L14.2398052,6 L9.76019479,6 L10.6405079,9.77277038 C10.7660033,10.310608 10.4317339,10.8483458 9.89389628,10.9738412 C9.35605863,11.0993367 8.81832091,10.7650673 8.69282546,10.2272296 L8.14269208,7.86951514 C6.23103112,8.82061689 5,10.4451055 5,12.2 L5,16 C5,16.3506354 4.93984578,16.6872211 4.82929429,17 L13,17 L13,19 L2,19 C1.44771525,19 1,18.5522847 1,18 C1,17.4477153 1.44771525,17 2,17 C2.55228475,17 3,16.5522847 3,16 L3,12.2 C3,9.44816789 4.92973276,7.05690636 7.76566896,5.8450389 C7.83119639,4.99871892 8.43511088,4.25546334 9.30573556,4.05231758 C9.45472236,4.01755399 9.60720598,4 9.76019479,4 L14.2398052,4 C15.2921648,4 16.1546889,4.81278204 16.233876,5.84484446 C19.0700608,7.05665058 21,9.44802071 21,12.2 L21,13 Z M20,18 L22,18 C22.5522847,18 23,18.4477153 23,19 C23,19.5522847 22.5522847,20 22,20 L20,20 L20,22 C20,22.5522847 19.5522847,23 19,23 C18.4477153,23 18,22.5522847 18,22 L18,20 L16,20 C15.4477153,20 15,19.5522847 15,19 C15,18.4477153 15.4477153,18 16,18 L18,18 L18,16 C18,15.4477153 18.4477153,15 19,15 C19.5522847,15 20,15.4477153 20,16 L20,18 Z"/>
</svg>

<svg width="24" height="24" fill="none" xmlns="http://www.w3.org/2000/svg"><path fill-rule="evenodd" clip-rule="evenodd" d="M21 13h-2v-.8c0-1.755-1.231-3.38-3.143-4.33l-.55 2.357a1 1 0 0 1-1.947-.454L14.24 6H9.76l.88 3.773a1 1 0 0 1-1.947.454l-.55-2.357C6.23 8.82 5 10.445 5 12.2V16c0 .35-.06.687-.17 1H13v2H2a1 1 0 1 1 0-2 1 1 0 0 0 1-1v-3.8c0-2.752 1.93-5.143 4.766-6.355A2 2 0 0 1 9.76 4h4.48a2 2 0 0 1 1.994 1.845C19.07 7.057 21 9.448 21 12.2v.8Zm-1 5h2a1 1 0 1 1 0 2h-2v2a1 1 0 1 1-2 0v-2h-2a1 1 0 1 1 0-2h2v-2a1 1 0 1 1 2 0v2Z" fill="#000"/></svg>
